src/ui/webui/resources/cr_components/chromeos/network/wifi_1.svg

<svg width="20" height="20" viewBox="0 0 20 20" xmlns="http://www.w3.org/2000/svg">
<path fill-rule="evenodd" clip-rule="evenodd" d="M9.44247 16.7281C9.72802 17.0905 10.2698 17.0905 10.5554 16.7289L17.8425 7.49646C18.1038 7.16533 18.0317 6.68099 17.6876 6.44135C16.4955 5.61135 13.7328 4 10 4C6.26792 4 3.50455 5.61135 2.31239 6.44135C1.96831 6.68099 1.89621 7.16533 2.15749 7.49646L9.44247 16.7281ZM4.61134 7.37751L9.99932 14.2053L15.3886 7.37739C14.1425 6.71268 12.2788 6 10 6C7.72159 6 5.85753 6.71277 4.61134 7.37751Z"/>
<path d="M13.8332 12.5761C12.7208 12.237 11.4317 12 10 12C8.56817 12 7.27891 12.2372 6.16626 12.5764L9.44247 16.7281C9.72802 17.0905 10.2698 17.0905 10.5554 16.7289L13.8332 12.5761Z" />
</svg>

<svg width="20" height="20" viewBox="0 0 20 20" xmlns="http://www.w3.org/2000/svg"><path fill-rule="evenodd" clip-rule="evenodd" d="M9.442 16.728a.706.706 0 0 0 1.113 0l7.288-9.232a.734.734 0 0 0-.155-1.055C16.496 5.611 13.733 4 10 4 6.268 4 3.505 5.611 2.312 6.441a.734.734 0 0 0-.155 1.055l7.285 9.232Zm-4.83-9.35 5.387 6.827 5.39-6.828C14.143 6.713 12.279 6 10 6c-2.278 0-4.142.713-5.389 1.378Z"/><path d="M13.833 12.576A13.122 13.122 0 0 0 10 12c-1.432 0-2.721.237-3.834.576l3.276 4.152a.706.706 0 0 0 1.113 0l3.278-4.152Z"/></svg>
